svgs/drinkable.svg

<svg width="192" height="192" viewBox="0 0 192 192" fill="none" xmlns="http://www.w3.org/2000/svg">
<path d="M96.9091 170V115.091M96.9091 170H119.134M96.9091 170H74.0303M96.9091 115.091L152.472 56.9134H42L96.9091 115.091Z" stroke="black" stroke-width="12" stroke-linecap="round" stroke-linejoin="round"/>
<path d="M96.9959 97.1005L118.575 74.5628H75.4172L96.9959 97.1005Z" stroke="black" stroke-width="8" stroke-linecap="round" stroke-linejoin="round"/>
<path d="M111.29 72.6017L125.458 42.813M136.784 19L134.296 24.2294" stroke="black" stroke-width="6" stroke-linecap="round" stroke-linejoin="round"/>
<ellipse cx="129.743" cy="33.2838" rx="6.12162" ry="6.12162" stroke="black" stroke-width="10"/>
</svg>

<svg xmlns="http://www.w3.org/2000/svg" width="192" height="192" fill="none" viewBox="0 0 192 192"><path stroke="#000" stroke-linecap="round" stroke-linejoin="round" stroke-width="12" d="M96.91 170v-54.909m0 54.909h22.224m-22.225 0H74.03m22.88-54.909 55.562-58.178H42l54.91 58.178Z"/><path stroke="#000" stroke-linecap="round" stroke-linejoin="round" stroke-width="8" d="m96.996 97.1 21.579-22.537H75.417L96.996 97.1Z"/><path stroke="#000" stroke-linecap="round" stroke-linejoin="round" stroke-width="6" d="m111.29 72.602 14.168-29.789M136.784 19l-2.488 5.23"/><circle cx="129.743" cy="33.284" r="6.122" stroke="#000" stroke-width="10"/></svg>
